img/cosmetics/kapous.svg

<svg width="131" height="35" viewBox="0 0 131 35" fill="none" xmlns="http://www.w3.org/2000/svg">
   <path d="M81.6741 5.0162C87.5429 5.0162 92.2153 9.68345 92.2153 15.5459C92.2153 21.4083 87.5429 26.0668 81.6741 26.0668C75.8053 26.0668 71.133 21.4083 71.133 15.5459C71.133 9.68345 75.8053 5.0162 81.6741 5.0162ZM81.6741 21.6089C84.9666 21.6089 87.5604 18.9656 87.5604 15.5371C87.5604 12.1087 84.9579 9.46535 81.6741 9.46535C78.3904 9.46535 75.7879 12.1087 75.7879 15.5371C75.7879 18.9743 78.3817 21.6089 81.6741 21.6089ZM57.0199 5.00748C51.745 5.00748 47.0639 8.54935 47.0639 16.7498V35H51.9546V23.3101C53.5703 25.6481 56.4959 26.1889 57.8671 26.1889C62.6791 26.1889 67.7357 22.6732 67.7357 15.7989C67.7357 10.5297 64.1987 5.00748 57.0199 5.00748ZM57.5963 21.7136C54.3039 21.7136 51.7101 19.079 51.7101 15.6505C51.7101 12.2221 54.3126 9.57876 57.5963 9.57876C60.8975 9.57876 63.4826 12.2221 63.4826 15.6505C63.4913 19.0877 60.8975 21.7136 57.5963 21.7136ZM32.4967 4.93769C25.4402 4.93769 21.8595 10.6169 21.8595 15.921C21.8595 22.5336 27.3703 26.1889 31.5535 26.1889C33.1605 26.1889 36.3481 25.7527 38.0075 23.1618V25.901H42.7147V16.8719C42.706 6.76097 36.3743 4.93769 32.4967 4.93769ZM32.3308 21.6089C29.0383 21.6089 26.4445 18.9656 26.4445 15.5371C26.4445 12.1087 29.0471 9.46535 32.3308 9.46535C35.632 9.46535 38.2171 12.1087 38.2171 15.5371C38.2171 18.9743 35.6233 21.6089 32.3308 21.6089ZM112.8 16.584C112.8 19.7856 112.634 23.1181 108.713 25.3078C107.359 26.0668 105.839 26.407 104.32 26.407C102.8 26.407 101.28 26.0668 99.9268 25.3078C96.0055 23.1181 95.8396 19.7856 95.8396 16.5404V5.40877H100.8V17.2121C100.8 18.5207 100.879 20.2655 102.355 21.1553C102.818 21.4519 103.769 21.574 104.32 21.574C104.87 21.574 105.778 21.4519 106.241 21.1553C107.717 20.2655 107.804 18.5207 107.804 17.2121V5.40877H112.8V16.584ZM10.9691 10.0324L11.921 9.08151L20.5321 0H13.6502L5.6068 8.58425V0H0V25.8749H5.64173V15.7291L5.6592 15.0312L7.1526 13.6092C13.1961 17.8577 13.4057 25.901 13.4057 25.901H18.7243C18.4623 14.9265 10.9691 10.0324 10.9691 10.0324ZM125.874 10.5907C125.306 9.62238 124.45 8.75 123.489 8.75C122.861 8.75 121.865 9.30832 121.865 10.2854C121.865 11.5416 123.245 12.0651 124.651 12.7455C126.939 13.8098 127.9 14.3856 128.528 14.8218C130.616 16.331 131 18.1717 131 19.5152C131 23.3973 127.751 26.3023 123.533 26.3023C122.861 26.3023 118.293 26.154 116.45 21.2687L120.206 19.5414C120.861 20.8063 122.013 22.1934 123.812 22.1934C125.262 22.1934 126.336 21.2861 126.336 19.9776C126.336 18.4771 124.939 17.7879 123.97 17.2994C121.935 16.331 120.965 15.9995 119.909 15.319C118.206 14.2024 117.341 12.7979 117.341 10.8699C117.341 6.99651 120.345 4.76321 123.882 4.76321C126.887 4.76321 128.782 6.65628 129.699 8.78489L125.874 10.5907Z" fill="black"></path>
</svg>

<svg width="131" height="35" fill="none" xmlns="http://www.w3.org/2000/svg"><path d="M81.674 5.016c5.869 0 10.541 4.667 10.541 10.53 0 5.862-4.672 10.52-10.54 10.52-5.87 0-10.542-4.658-10.542-10.52 0-5.863 4.672-10.53 10.541-10.53Zm0 16.593c3.293 0 5.886-2.643 5.886-6.072 0-3.428-2.602-6.072-5.886-6.072-3.284 0-5.886 2.644-5.886 6.072 0 3.437 2.594 6.072 5.886 6.072ZM57.02 5.007c-5.275 0-9.956 3.542-9.956 11.743V35h4.89V23.31c1.616 2.338 4.542 2.879 5.913 2.879 4.812 0 9.869-3.516 9.869-10.39 0-5.27-3.537-10.792-10.716-10.792Zm.576 16.707c-3.292 0-5.886-2.635-5.886-6.063 0-3.429 2.603-6.072 5.886-6.072 3.302 0 5.887 2.643 5.887 6.071.008 3.438-2.585 6.064-5.887 6.064Zm-25.1-16.776c-7.056 0-10.637 5.679-10.637 10.983 0 6.613 5.511 10.268 9.694 10.268 1.607 0 4.795-.436 6.454-3.027V25.9h4.708v-9.03c-.009-10.11-6.34-11.933-10.218-11.933Zm-.165 16.67c-3.293 0-5.887-2.642-5.887-6.07 0-3.43 2.603-6.073 5.887-6.073 3.301 0 5.886 2.644 5.886 6.072 0 3.437-2.594 6.072-5.886 6.072Zm80.469-5.024c0 3.202-.166 6.534-4.087 8.724-1.354.759-2.874 1.099-4.393 1.099-1.52 0-3.04-.34-4.393-1.1-3.922-2.189-4.087-5.521-4.087-8.767V5.41h4.96v11.803c0 1.309.079 3.053 1.555 3.943.463.297 1.414.419 1.965.419.55 0 1.458-.122 1.921-.419 1.476-.89 1.563-2.634 1.563-3.943V5.41h4.996v11.175ZM10.97 10.032l.951-.95L20.532 0H13.65L5.607 8.584V0H0v25.875h5.642V15.729l.017-.698 1.494-1.422c6.043 4.249 6.253 12.292 6.253 12.292h5.318c-.262-10.974-7.755-15.869-7.755-15.869Zm114.904.559c-.568-.969-1.424-1.841-2.385-1.841-.628 0-1.624.558-1.624 1.535 0 1.257 1.38 1.78 2.786 2.46 2.288 1.065 3.249 1.64 3.877 2.077 2.088 1.509 2.472 3.35 2.472 4.693 0 3.882-3.249 6.787-7.467 6.787-.672 0-5.24-.148-7.083-5.033l3.756-1.728c.655 1.265 1.807 2.652 3.606 2.652 1.45 0 2.524-.907 2.524-2.215 0-1.5-1.397-2.19-2.366-2.679-2.035-.968-3.005-1.3-4.061-1.98-1.703-1.117-2.568-2.521-2.568-4.45 0-3.872 3.004-6.106 6.541-6.106 3.005 0 4.9 1.893 5.817 4.022l-3.825 1.806Z" fill="#000"/></svg>
